X:0710
T:Logie o' Buchan.
M:3/4
L:1/8
Q:1/4=120
I: || || || || ||
Z:Jack Campin * www.campin.me.uk * 2009
K:D
AG|F3G A2|Af3   e2|d2 B2 B2|B4  \
AG|F3G A2|Ad3   e2|f2 d2 d2|d4||
de|f3e f2|a4    fe|d2 B2 c2|d4  \
de|f3g f2|e2 d2 e2|f3  d B2|B4||
AG|F3G A2|Af3   e2|d2 B2 B2|B4||\
AG|F3G A2|Ad3   e2|f2 d2 d2|d4||
de|f3e f2|a2 f3  e|d2 B2 c2|d4  \
de|f3g f2|e2 d2 e2|f3  d B2|d4|]
<end>
<start>
